!!!COM:	Josquin des Prez
!!!CDT:	~1450-1521/08/27
!!!OPR:	Missa L'homme arm&eacute; sexti toni
!!!ONM:	3
!!!OTL:	Credo
!!!AGN:	Mass; Credo
!!!SCT:	NJE 6.2
!!!SCA:	New Josquin Edition 6.2
!!!voices: 4
!!!voices-OPR: 4(-6)
**kern	**kern	**kern	**kern
*staff4	*staff3	*staff2	*staff1
*Ivox	*Ivox	*Ivox	*Ivox
*I"Bassus	*I"Tenor	*I"Altus	*I"Superius
*I'B	*I'T	*I'A	*I'S
*>[A,B,C]	*>[A,B,C]	*>[A,B,C]	*>[A,B,C]
*>Patrem[A]	*>Patrem[A]	*>Patrem[A]	*>Patrem[A]
*>EtResurrexit[B]	*>EtResurrexit[B]	*>EtResurrexit[B]	*>EtResurrexit[B]
*>EtUnam[C]	*>EtUnam[C]	*>EtUnam[C]	*>EtUnam[C]
*clefF4	*clefGv2	*clefGv2	*clefG2
*k[b-]	*k[b-]	*k[b-]	*k[b-]
*>A	*>A	*>A	*>A
*M3/1	*M3/1	*M3/1	*M3/1
*met(O)	*met(O)	*met(O)	*met(O)
=1-	=1-	=1-	=1-
!!section: Patrem
!!!OMD: Patrem
!LO:TX:Y=20:X=-50:t=[B add E-flat below staff to key sig.]	!	!	!
0.r	0.r	0F	0.r
.	.	1F	.
=2	=2	=2	=2
0.r	0.r	1F	0f
.	.	1.B-	.
.	.	.	1f
.	.	2A/	.
=3	=3	=3	=3
0.r	0.r	1A	1f
.	.	1.G	1.b-
.	.	4F/	2a/
.	.	4E/	.
=4	=4	=4	=4
0.r	0.r	2D/	1a
.	.	1C	.
.	.	.	1.g
.	.	2D/	.
.	.	1E	.
.	.	.	4f/
.	.	.	4e/
=5	=5	=5	=5
0.r	0.r	0F	2d/
.	.	.	2c/
.	.	.	0f
.	.	1r	.
=6	=6	=6	=6
0.r	0.r	[0.c	1.e
.	.	.	2f/
.	.	.	1g
=7	=7	=7	=7
0.r	0.r	0c]	1.a
.	.	.	1g
.	.	1c	.
.	.	.	4f/
.	.	.	4e/
=8	=8	=8	=8
0.r	0.r	1B-	1d
.	.	2A/	1c
.	.	2.F/	.
.	.	.	1f
.	.	4E/	.
.	.	2D/	.
=9	=9	=9	=9
0.r	0.r	2C/	2e/
.	.	2F/	1d
.	.	2G/	.
.	.	1A	2c/
.	.	.	1B-
.	.	2G/	.
=10	=10	=10	=10
0.r	0.r	0A	1A
.	.	.	1r
.	.	2r	1c
.	.	[2F/	.
=11	=11	=11	=11
0.r	0.r	2F/]	2d/
.	.	2G/	1e
.	.	1A	.
.	.	.	2f/
.	.	2B-\	1g
.	.	[2c\	.
=12	=12	=12	=12
0.r	0.r	2c\]	1a
.	.	2F/	.
.	.	2E/	2g/
.	.	2.F/	2.a/
.	.	4G/	4g/
.	.	2A/	4f/
.	.	.	4e/
=13	=13	=13	=13
0.r	0.r	2B-\	2d/
.	.	2c\	1c
.	.	1F	.
.	.	.	2.f/
.	.	2.B-\	.
.	.	.	4e/
.	.	.	4d/
.	.	4A/	4c/
=14	=14	=14	=14
0.r	0.r	4G/	2B-/
.	.	4F/	.
.	.	2c\	1A
.	.	1F	.
.	.	.	2.d/
.	.	2.d\	.
.	.	.	4c/
.	.	.	4B-/
.	.	4c\	4A/
=15	=15	=15	=15
0.r	0.r	4B-\	2G/
.	.	4A/	.
.	.	2c\	1F
.	.	1F	.
.	.	.	2.f/
.	.	1d	.
.	.	.	4g/
.	.	.	2b-\
=16	=16	=16	=16
0.r	0.r	2c\	2a/
.	.	2.B-\	2.g/
.	.	4A/	4f/
.	.	4G/	1f
.	.	4F/	.
.	.	1G	.
.	.	.	2e/
=17	=17	=17	=17
1r	[0.F	1.F	0.f
1r	.	.	.
.	.	2G/	.
1FF	.	1A	.
=18	=18	=18	=18
1.BB-	0.F]	2D/	1r
.	.	1d	.
.	.	.	1r
2C/	.	4c\	.
.	.	4B-\	.
1D	.	1A	1f
=19	=19	=19	=19
1E-	[0.B-	1G	1g
2D\	.	1r	2f/
1E-i	.	.	1g
.	.	1E-	.
4D\	.	.	4f/
4C/	.	.	4e-i/
=20	=20	=20	=20
1BB-	0.B-]	1F	2.d/
.	.	.	4e-i/
1r	.	2D/	4f/
.	.	.	4d/
.	.	2.E-i/	2.g/
1EE-	.	.	.
.	.	4F/	4f/
.	.	2G/	4e-i/
.	.	.	4d/
=21	=21	=21	=21
2FF/	[0.A	2.A/	1c
2.F\	.	.	.
.	.	4B-\	.
.	.	2c\	2r
4E\	.	.	.
2D\	.	2d\	2.f/
2C/	.	2r	.
.	.	.	4e/
2D\	.	2D/	2d/
=22	=22	=22	=22
2AA/	0.A]	2E/	2c/
2.F\	.	2.D/	2d/
.	.	.	2A/
4E\	.	4C/	.
2D\	.	2D/	2f/
2C/	.	2E/	2e/
2D\	.	2F/	[2d/
=23	=23	=23	=23
2GG/	[0.G	2.G/	4d/]
.	.	.	4c/
2.E-i\	.	.	4B-/
.	.	4A/	4A/
.	.	2B-\	2G/
4D\	.	.	.
2C/	.	2c\	2.e-/
2BB-/	.	2r	.
.	.	.	4d/
2C/	.	2C/	2c/
=24	=24	=24	=24
2GG/	0.G]	2D/	2B-/
2.E-i\	.	2.C/	2c/
.	.	.	2G/
4D\	.	4BB-/	.
2C/	.	2C/	2e-i/
2BB-/	.	2D/	2d/
2C/	.	2E/	[2c/
=25	=25	=25	=25
2FF/	[0.F	2.F/	4c/]
.	.	.	4B-/
2.D\	.	.	4A/
.	.	4G/	4G/
.	.	2A/	2F/
4C/	.	.	.
2BB-/	.	2B-\	2.f/
2AA/	.	2c\	.
.	.	.	4e/
2BB-/	.	2d\	2d/
=26	=26	=26	=26
0.FF	0.F]	2A/	2c/
.	.	2B-\	2d/
.	.	[0c	1A
.	.	.	1A
=27	=27	=27	=27
2r	0.r	1c]	0.r
1FF	.	.	.
.	.	2r	.
2BB-/	.	1F	.
2AA/	.	.	.
2GG/	.	2B-\	.
=28	=28	=28	=28
2.C/	0.r	2A/	0.r
.	.	2G/	.
4BB-/	.	.	.
4AA/	.	2.c\	.
4GG/	.	.	.
1FF	.	.	.
.	.	4B-\	.
.	.	4A/	.
.	.	4G/	.
2BB-/	.	[2F/	.
=29	=29	=29	=29
2AA/	0.r	2F/]	0.r
2GG/	.	2B-\	.
2.C/	.	4A/	.
.	.	4G/	.
.	.	2.c\	.
4D\	.	.	.
2E\	.	.	.
.	.	4B-\	.
2F\	.	4A/	.
.	.	4G/	.
=30	=30	=30	=30
2.D\	0.r	4F/	0.r
.	.	4E/	.
.	.	2.B-\	.
4C/	.	.	.
4D\	.	.	.
4C/	.	4A/	.
4D\	.	1A	.
4AA/	.	.	.
4C/	.	.	.
4D\	.	.	.
2BB-/	.	2G/	.
=31	=31	=31	=31
0.AA	0.r	0A	1r
.	.	.	2r
.	.	.	2.cc\
.	.	2.c\	.
.	.	.	4b-\
.	.	.	4a/
.	.	4B-\	4g/
=32	=32	=32	=32
0.r	0.r	4A/	4f/
.	.	4G/	4e/
.	.	1d	2.b-\
.	.	.	4a/
.	.	2c\	1a
.	.	1B-	.
.	.	.	2g/
=33	=33	=33	=33
2r	0c	1A	1a
2F\	.	.	.
2E\	.	1r	2r
2F\	.	.	1a
1D	1F	1r	.
.	.	.	2f/
=34	=34	=34	=34
1C	0.r	1c	2a/
.	.	.	2.g/
1r	.	2G/	.
.	.	.	4f/
.	.	2A/	2e/
1r	.	2B-\	2d/
.	.	2c\	[2c/
=35	=35	=35	=35
2.C/	0c	0.r	4c/]
.	.	.	4d/
.	.	.	4e/
4D\	.	.	4f/
2E\	.	.	2g/
2F\	.	.	1a
1D	1F	.	.
.	.	.	2f/
=36	=36	=36	=36
0.r	0.r	2.c\	2a/
.	.	.	1g
.	.	4B-\	.
.	.	2G/	.
.	.	2F/	1a
.	.	2A/	.
.	.	2B-\	4g/
.	.	.	4f/
=37	=37	=37	=37
*M9/2	*	*	*
*met(3/2)	*	*	*
3.C/	0c	2c\	1e
6D\	.	2G/	.
3E\	.	.	.
3%2F	.	4A/	1r
.	.	4G/	.
.	.	1c	.
3E\	.	.	.
3F\	1F	.	1r
3%2D	.	.	.
.	.	2Bni\	.
=38	=38	=38	=38
*M3/1	*	*	*
*met(O)	*	*	*
[0.C	2r	0c	1.e
.	1c	.	.
.	2c\	.	2e/
.	1c	2r	1e
.	.	2G/	.
=39	=39	=39	=39
0.C]	1c	2A/	0e
.	.	2G/	.
.	2r	1c	.
.	2.c\	.	.
.	.	1r	2r
.	4B-\	.	.
.	4A/	.	2e/
.	4G/	.	.
=40	=40	=40	=40
2D\	2F/	2r	2f/
2C/	2E/	1c	2.g/
1D	1F	.	.
.	.	.	8f/L
.	.	.	8g/J
.	.	2B-\	2.f/
1C	1G	2.c\	.
.	.	.	8e/L
.	.	.	8f/J
.	.	.	2e/
.	.	4B-\	.
=41	=41	=41	=41
2.FF/	[0.F	4A/	1f
.	.	4G/	.
.	.	2.F/	.
4GG/	.	.	.
2AA/	.	.	1r
.	.	4E/	.
2BB-/	.	2D/	.
2AA/	.	2C/	2c/
2BB-/	.	2BB-/	2d/
=42	=42	=42	=42
2FF/	0F]	2.F/	2c/
2.BB-/	.	.	2.d/
.	.	4E/	.
.	.	4D/	.
4AA/	.	4C/	4c/
4GG/	.	1C	2A/
4FF/	.	.	.
1GG	2D/	.	1B-
.	2E/	2BB-/	.
=43	=43	=43	=43
0.FF	0.F	1C	1A
.	.	1r	2a/
.	.	.	2a/
.	.	2c\	2a/
.	.	2d\	2a/
=44	=44	=44	=44
0.r	0.r	2c\	4a/
.	.	.	4g/
.	.	2.d\	2.b-\
.	.	4c\	4a/
.	.	2A/	1a
.	.	1B-	.
.	.	.	2g/
=45	=45	=45	=45
0.r	0.r	1A	2a/
.	.	.	2.cc\
.	.	2A/	.
.	.	.	4b-\
.	.	2A/	2.a/
.	.	2A/	.
.	.	.	4g/
.	.	2A/	2f/
=46	=46	=46	=46
0.r	0.r	4A/	2e/
.	.	4G/	.
.	.	2.B-\	1d
.	.	4A/	.
.	.	1A	2c/
.	.	.	1B-
.	.	2G/	.
=47	=47	=47	=47
0.r	0.r	0A	1A
.	.	.	2F/
.	.	.	2G/
.	.	2F/	2A/
.	.	2G/	2B-/
=48	=48	=48	=48
0.r	0.r	2A/	2.c/
.	.	2B-\	.
.	.	.	4d/
.	.	0c	2e/
.	.	.	2f/
.	.	.	2g/
.	.	.	2a/
=49	=49	=49	=49
0.r	0.r	2G/	2.b-\
.	.	1B-	.
.	.	.	4a/
.	.	.	4g/
.	.	.	4f/
.	.	2A/	1f
.	.	1G	.
.	.	.	2e/
=50	=50	=50	=50
1.FF	[0.c	0.F	0f
1.F	.	.	.
.	.	.	1a
=51	=51	=51	=51
1.E	0c]	1C	1.g
.	.	1r	.
2F\	.	.	2f/
1D	1F	1r	2.a/
.	.	.	4g/
=52	=52	=52	=52
1C	0.r	1.c	2.e/
.	.	.	4f/
1r	.	.	2.g/
.	.	1.B-	.
.	.	.	4f/
1r	.	.	1d
=53	=53	=53	=53
0.r	0.r	2.c\	2c/
.	.	.	2.e/
.	.	4B-\	.
.	.	2G/	.
.	.	.	4d/
.	.	2B-\	1g
.	.	1A	.
.	.	.	2f#i/
=54	=54	=54	=54
1.C	[0.c	2G/	1g
.	.	2.c\	.
.	.	.	1r
.	.	4B-\	.
1.F	.	4A/	.
.	.	4G/	.
.	.	2.F/	1a
.	.	4E/	.
=55	=55	=55	=55
1.E	0c]	1C	1.g
.	.	2r	.
2F\	.	1c	1a
1D	1F	.	.
.	.	2B-\	4g/
.	.	.	4f/
=56	=56	=56	=56
1C	0.r	2.c\	0.e
.	.	4B-\	.
2r	.	2A/	.
2C/	.	2.G/	.
[1C	.	.	.
.	.	4F/	.
.	.	4E/	.
.	.	4D/	.
=57	=57	=57	=57
2C/]	0.r	4E/	0.r
.	.	4D/	.
2BB-/	.	2.G/	.
1AA	.	.	.
.	.	4C/	.
.	.	1F	.
1GG	.	.	.
.	.	2E/	.
=58	=58	=58	=58
0FF	1r	0F	0.r
.	2r	.	.
.	2c\	.	.
2.C/	[1c	1r	.
4D\	.	.	.
=59	=59	=59	=59
4E\	2c\]	0.r	0.r
4F\	.	.	.
2.G\	2B-\	.	.
.	1A	.	.
4F\	.	.	.
1F	.	.	.
.	1G	.	.
2E\	.	.	.
=60	=60	=60	=60
1F	0F	0.r	0.r
2r	.	.	.
2F\	.	.	.
[1G	2.B-\	.	.
.	4c\	.	.
=61	=61	=61	=61
2G\]	4d\	1r	0.r
.	4e-i\	.	.
2F\	1d	.	.
1E	.	1r	.
.	1c	.	.
1D	.	1F	.
.	2Bni\	.	.
=62	=62	=62	=62
0.C	0.c	2.G/	1.g
.	.	4F/	.
.	.	4E/	.
.	.	4D/	.
.	.	2C/	2g/
.	.	2.e-\	[1g
.	.	4e-i\	.
=63	=63	=63	=63
0.r	0.r	2e-i\	2g/]
.	.	2.d\	2f/
.	.	.	1e
.	.	4c\	.
.	.	1c	.
.	.	.	1d
.	.	2B-\	.
=64	=64	=64	=64
0C	1r	2.c\	0c
.	.	4B-\	.
.	2r	2A/	.
.	2c\	2G/	.
1FF	[1c	[1F	2.cc\
.	.	.	4b-\
=65	=65	=65	=65
2FF/	2c\]	2F/]	2a/
2GG/	2B-\	4E/	1g
.	.	4D/	.
2AA/	1A	0C	.
2FF/	.	.	1f
1C	1G	.	.
.	.	.	2e/
=66	=66	=66	=66
0FF	0F	1c	1f
.	.	2r	2r
.	.	1A	2.c/
1F	2r	.	.
.	.	.	4B-/
.	[2c\	2F/	2A/
=67	=67	=67	=67
2E\	2c\]	2G/	2G/
1.F	2c\	1A	2F/
.	2F/	.	1A
.	1.c	2F/	.
2E\	.	2G/	2G/
[2F\	.	[2A/	2F/
=68	=68	=68	=68
1F]	2F/	2A/]	2.c/
.	1c	2F/	.
.	.	.	4B-/
2E\	.	2G/	2G/
2F\	2c\	1A	2F/
1D	1F	.	1f
.	.	2F/	.
=69	=69	=69	=69
0.C	0.c	1A	0.e
.	.	0G	.
=70	=70	=70	=70
0.r	0.r	2A/	2r
.	.	2.B-\	1d
.	.	4A/	.
.	.	4G/	2d/
.	.	4F/	.
.	.	2.c\	1e
.	.	4B-\	.
=71	=71	=71	=71
0.r	0.r	4A/	2e/
.	.	4G/	.
.	.	2.d\	1f
.	.	4c\	.
.	.	1c	2e/
.	.	.	1d
.	.	2Bni\	.
=72	=72	=72	=72
1.C	0.r	1c	1c
.	.	2G/	1r
1.BB-	.	2.B-\	.
.	.	.	1r
.	.	4A/	.
.	.	[2F/	.
=73	=73	=73	=73
2AA/	1.c	4F/]	0.r
.	.	4E/	.
2.C/	.	4C/	.
.	.	4D/	.
.	.	4E/	.
4BB-/	.	4F/	.
2GG/	1.B-	2.G/	.
2.BB-/	.	.	.
.	.	4F/	.
.	.	2D/	.
4AA/	.	.	.
=74	=74	=74	=74
1FF	2A/	2.F/	1cc
.	2.c\	.	.
.	.	4E/	.
1r	.	2C/	2cc\
.	4B-\	.	.
.	2G/	2.E-i/	1b-
1EE-	2.B-\	.	.
.	.	4D/	.
.	.	2BB-/	2b-\
.	4A/	.	.
=75	=75	=75	=75
0FF	2.F/	2r	2a/
.	.	1F	2.cc\
.	4G/	.	.
.	4A/	.	.
.	4B-\	.	4b-\
.	2c\	2F/	4a/
.	.	.	4g/
1GG	4B-\	1D	2.b-\
.	4G/	.	.
.	[2B-\	.	.
.	.	.	4a/
=76	=76	=76	=76
2EE-/	2B-\]	2E-i/	4g/
.	.	.	4f/
2.FF/	2A/	2.C/	2.a/
.	1F	.	.
4GG/	.	4BB-/	4g/
2AA/	.	2C/	1f
2BB-/	1G	2D/	.
2C/	.	2E-i/	2eni/
=77	=77	=77	=77
[0.FFl	[0.Fl	0.C	[0.fl
=78	=78	=78	=78
0.FF]	0.F]	0.cl	0.f]
!!LO:LB:i:g=z
=79||	=79||	=79||	=79||
*>B	*>B	*>B	*>B
!!section: Et resurrexit
!!!OMD: Et resurrexit
*M2/1	*M2/1	*M2/1	*M2/1
*met(C|)	*met(C|)	*met(C|)	*met(C|)
0r	0r	0F	0r
=80	=80	=80	=80
0r	0r	1F	0r
.	.	2.G/	.
.	.	4A/	.
=81	=81	=81	=81
0F	0r	2B-\	0r
.	.	2.A/	.
.	.	4G/	.
.	.	4F/	.
.	.	4E/	.
=82	=82	=82	=82
1F	0r	1D	0r
2.G\	.	1C	.
4A\	.	.	.
=83	=83	=83	=83
2B-\	0r	1r	0f
2.A\	.	.	.
.	.	[1F	.
4G\	.	.	.
4F\	.	.	.
4E\	.	.	.
=84	=84	=84	=84
1D	1r	1F]	1f
1C	[1c	2G/	[1e
.	.	[2A/	.
=85	=85	=85	=85
1r	2c\]	2A/]	1e]
.	2B-\	4G/	.
.	.	4F/	.
1C	2A/	1c	1e
.	2G/	.	.
=86	=86	=86	=86
1D	1F	2A/	0f
.	.	1B-	.
2BB-/	[1B-	.	.
[2D\	.	4A/	.
.	.	4G/	.
=87	=87	=87	=87
2D\]	1B-]	0F	1d
2E\	.	.	.
1F	1A	.	[1c
=88	=88	=88	=88
1FF	2r	2r	1c]
.	2A/	2c\	.
1r	2G/	2B-\	1r
.	[2A/	[2c\	.
=89	=89	=89	=89
0r	2A/]	2c\]	0r
.	4G/	4B-\	.
.	4F/	4A/	.
.	1E	1G	.
=90	=90	=90	=90
0r	2r	2r	0r
.	2c\	2A/	.
.	2B-\	2G/	.
.	[2c\	[2A/	.
=91	=91	=91	=91
0r	2c\]	2A/]	0r
.	4B-\	4G/	.
.	4A/	4F/	.
.	1G	1E	.
=92	=92	=92	=92
1.FF	1r	1r	0f
.	1A	1c	.
2GG/	.	.	.
=93	=93	=93	=93
2AA/	1A	1c	1f
2BB-/	.	.	.
2C/	1A	[1c	[1e
2D\	.	.	.
=94	=94	=94	=94
2E\	4G/	1c]	1e]
.	4F/	.	.
2F\	4E/	.	.
.	4D/	.	.
2G\	1C	1c	1e
[2A\	.	.	.
=95	=95	=95	=95
2A\]	2.F/	4A/	0f
.	.	4G/	.
1D	.	4F/	.
.	4G/	4E/	.
.	4A/	[1D	.
.	4B-\	.	.
2C/	[2A/	.	.
=96	=96	=96	=96
1BB-	2A/]	1D]	1d
.	2G/	.	.
1AA	[1A	1E	[1c
=97	=97	=97	=97
1r	1A]	4F/	1c]
.	.	4G/	.
.	.	4A/	.
.	.	4B-\	.
1F	1r	2c\	1r
.	.	2d\	.
=98	=98	=98	=98
1G	0r	4e-\	0r
.	.	4d\	.
.	.	4e-i\	.
.	.	4d\	.
2G\	.	2e-i\	.
[2F\	.	[2d\	.
=99	=99	=99	=99
2F\]	1r	4d\]	0r
.	.	4c\	.
2F\	.	4B-\	.
.	.	4A/	.
2E\	2r	1G	.
2C/	[2c\	.	.
=100	=100	=100	=100
2E\	2c\]	1r	1r
2F\	4B-\	.	.
.	4A/	.	.
1D	1B-	1d	1f
=101	=101	=101	=101
1C	0r	4e-i\	1g
.	.	4d\	.
.	.	4e-i\	.
.	.	4d\	.
[1BB-	.	2e-i\	2g/
.	.	[2d\	[2f/
=102	=102	=102	=102
1BB-]	1r	4d\]	2f/]
.	.	4c\	.
.	.	4B-\	2f/
.	.	4A/	.
1C	2r	[1G	2e/
.	[2c\	.	2c/
=103	=103	=103	=103
0GG	2c\]	0G]	2e/
.	4Bni\	.	2f/
.	4A/	.	.
.	1Bni	.	1d
=104	=104	=104	=104
0AA	1.c	2r	[0c
.	.	2C/	.
.	.	2C/	.
.	4B-\	2C/	.
.	4A/	.	.
=105	=105	=105	=105
2r	0A	0F	0c]
2FF/	.	.	.
2FF/	.	.	.
2FF/	.	.	.
=106	=106	=106	=106
0BB-	2r	1r	0r
.	2F/	.	.
.	2F/	2r	.
.	2F/	2F/	.
=107	=107	=107	=107
1r	0B-	1E-	0r
2r	.	1D	.
2BB-/	.	.	.
=108	=108	=108	=108
1AA	1r	4C/	0r
.	.	4D/	.
.	.	4Eni/	.
.	.	4F/	.
1GG	2r	2BB-/	.
.	2B-\	[2D/	.
=109	=109	=109	=109
1FF	1A	4D/]	0r
.	.	4C/	.
.	.	1F	.
2r	1G	.	.
2C/	.	2E/	.
=110	=110	=110	=110
2D\	0F	4F/	0f
.	.	4G/	.
2.F\	.	4A/	.
.	.	4B-\	.
.	.	2c\	.
4E\	.	.	.
4D\	.	[2d\	.
4C/	.	.	.
=111	=111	=111	=111
1BB-	1r	4d\]	1f
.	.	4c\	.
.	.	4B-\	.
.	.	4A/	.
1C	1c	1G	[1e
=112	=112	=112	=112
1AA	1c	0C	1e]
2r	1c	.	1e
2C/	.	.	.
=113	=113	=113	=113
2D\	2.A/	2.F/	0f
2.F\	.	.	.
.	4B-\	4G/	.
.	2c\	2A/	.
4E\	.	.	.
4D\	[2d\	[2B-\	.
4C/	.	.	.
=114	=114	=114	=114
1BB-	4d\]	4B-\]	1d
.	4c\	4A/	.
.	4B-\	4G/	.
.	4A/	4F/	.
1C	1G	1E	[1c
=115	=115	=115	=115
0FF	1r	1r	1c]
.	1F	1A	1r
=116	=116	=116	=116
0r	1G	1B-	0r
.	1E	1c	.
=117	=117	=117	=117
0r	2.F/	2.A/	0r
.	4G/	4B-\	.
.	2A/	2c\	.
.	[2B-\	[2d\	.
=118	=118	=118	=118
1r	4B-\]	4d\]	0r
.	4A/	4c\	.
.	4G/	4B-\	.
.	4F/	4A/	.
1C	1E	1G	.
=119	=119	=119	=119
2D\	4F/	0F	0f
.	4G/	.	.
2.F\	4A/	.	.
.	4B-\	.	.
.	2c\	.	.
4E\	.	.	.
4D\	[2d\	.	.
4C/	.	.	.
=120	=120	=120	=120
1BB-	4d\]	1r	1f
.	4c\	.	.
.	4B-\	.	.
.	4A/	.	.
1C	1G	1c	[1e
=121	=121	=121	=121
1AA	0C	1c	1e]
2r	.	1c	1e
2C/	.	.	.
=122	=122	=122	=122
2D\	2.F/	2.A/	0f
2.F\	.	.	.
.	4G/	4B-\	.
.	2A/	2c\	.
4E\	.	.	.
4D\	[2B-\	[2d\	.
4C/	.	.	.
=123	=123	=123	=123
1BB-	4B-\]	4d\]	1d
.	4A/	4c\	.
.	4G/	4B-\	.
.	4F/	4A/	.
1C	1E	1G	[1c
=124	=124	=124	=124
0FF	1r	0F	1c]
.	[1c	.	1r
=125	=125	=125	=125
0r	2c\]	2.C/	0r
.	4B-\	.	.
.	4A/	4D/	.
.	2G/	2E/	.
.	[2A/	[2F/	.
=126	=126	=126	=126
0r	4A/]	4F/]	0r
.	4G/	4G/	.
.	2F/	4A/	.
.	.	4B-\	.
.	2E/	2G/	.
.	2C/	[2c\	.
=127	=127	=127	=127
0r	2E/	2c\]	1r
.	2F/	4B-\	.
.	.	4A/	.
.	1D	1B-	1f
=128	=128	=128	=128
0r	2.C/	2r	1g
.	.	2.c\	.
.	4D/	.	.
.	2E/	.	2g/
.	.	4B-\	.
.	[2F/	4A/	[2f/
.	.	4G/	.
=129	=129	=129	=129
0r	4F/]	1F	2f/]
.	4G/	.	.
.	4A/	.	2f/
.	4B-\	.	.
.	2G/	1C	2e/
.	[2c\	.	2c/
=130	=130	=130	=130
1r	2c\]	0G	2e/
.	4Bni\	.	2f/
.	4A/	.	.
1GG	1Bni	.	1d
=131	=131	=131	=131
2AA/	1c	2C/	[0c
2FF/	.	2F/	.
2.AA/	2C/	2E/	.
.	2F/	2A/	.
4BB-/	.	.	.
=132	=132	=132	=132
2C/	2E/	2G/	0c]
1AA	2A/	2.c\	.
.	2G/	.	.
.	.	4B-\	.
[2C/	[2c\	2A/	.
=133	=133	=133	=133
4C/]	2c\]	2G/	0r
4D\	.	.	.
2E\	4B-\	2F/	.
.	4A/	.	.
4F\	2B-\	2r	.
4G\	.	.	.
[2A\	2c\	[2F/	.
=134	=134	=134	=134
4A\]	1F	2F/]	0r
4F\	.	.	.
1F	.	2D/	.
.	1G	1C	.
2E\	.	.	.
=135	=135	=135	=135
0F	0F	2r	0r
.	.	1c	.
.	.	4B-\	.
.	.	4A/	.
=136	=136	=136	=136
0r	0r	2B-\	0r
.	.	2c\	.
.	.	1F	.
=137	=137	=137	=137
1.F	1r	1r	0f
.	[1F	1A	.
2E\	.	.	.
=138	=138	=138	=138
1D	1F]	1B-	1f
1C	1G	[1c	[1e
=139	=139	=139	=139
0AA	1.A	2c\]	1e]
.	.	2c\	.
.	.	1c	1e
.	2A/	.	.
=140	=140	=140	=140
1.D	1A	1r	0f
.	[1D	1F	.
2C/	.	.	.
=141	=141	=141	=141
1BB-	1D]	1G	1d
1AA	1E	[1A	[1c
=142	=142	=142	=142
0FF	1.F	2A/]	1c]
.	.	2A/	.
.	.	1A	1r
.	2F/	.	.
=143	=143	=143	=143
0r	1F	1A	0r
.	2C/	1A	.
.	[2F/	.	.
=144	=144	=144	=144
0r	4F/]	1.A	0r
.	4G/	.	.
.	4A/	.	.
.	4B-\	.	.
.	2c\	.	.
.	[2d\	[2B-\	.
=145	=145	=145	=145
0r	4d\]	4B-\]	0r
.	4c\	4A/	.
.	2A/	1A	.
.	1B-	.	.
.	.	2G/	.
=146	=146	=146	=146
1F	0A	0A	0f
2D\	.	.	.
[2F\	.	.	.
=147	=147	=147	=147
2F\]	1r	1F	1f
4E\	.	.	.
4D\	.	.	.
1C	2r	1G	[1e
.	[2c\	.	.
=148	=148	=148	=148
1r	2c\]	0C	1e]
.	4B-\	.	.
.	4A/	.	.
1C	2G/	.	1e
.	2A/	.	.
=149	=149	=149	=149
1D	2r	0r	0f
.	1B-	.	.
2BB-/	.	.	.
[2D\	4A/	.	.
.	4G/	.	.
=150	=150	=150	=150
2D\]	2F/	0r	1d
4C/	2G/	.	.
4BB-/	.	.	.
1AA	2r	.	[1c
.	[2A/	.	.
=151	=151	=151	=151
1r	2A/]	1r	1c]
.	4G/	.	.
.	4F/	.	.
1AA	2E/	1c	1r
.	2F/	.	.
=152	=152	=152	=152
1BB-	2r	1d	0r
.	1G	.	.
2GG/	.	2B-\	.
[2BB-/	4F/	[2d\	.
.	4E/	.	.
=153	=153	=153	=153
2BB-/]	2D/	2d\]	0r
4AA/	2E/	4c\	.
4GG/	.	4B-\	.
[1FF	2r	1A	.
.	[2F/	.	.
=154	=154	=154	=154
2FF/]	2F/]	1r	1r
2FF/	4E/	.	.
.	4D/	.	.
1FF	2C/	1A	1f
.	2D/	.	.
=155	=155	=155	=155
1.EE-	1E-	1B-	1g
.	1C	1c	2g/
[2FF/	.	.	[2f/
=156	=156	=156	=156
4FF/]	1c	1A	2f/]
4GG/	.	.	.
4AA/	.	.	2f/
4BB-/	.	.	.
1C	2r	1G	2e/
.	2G/	.	2c/
=157	=157	=157	=157
1r	1A	2r	2e/
.	.	2F/	2f/
2r	1B-	2G/	1d
2GG/	.	2B-\	.
=158	=158	=158	=158
2AA/	1c	1A	[0c
2BB-/	.	.	.
1C	2r	2G/	.
.	2G/	2E/	.
=159	=159	=159	=159
1r	2A/	2.F/	0c]
.	2B-\	.	.
.	.	4E/	.
2r	1c	1C	.
2C/	.	.	.
=160	=160	=160	=160
2D\	1B-	0r	0r
2E\	.	.	.
2F\	2A/	.	.
[2D\	[2B-\	.	.
=161	=161	=161	=161
2D\]	4B-\]	0r	0r
.	4A/	.	.
2C/	1A	.	.
1BB-	.	.	.
.	2G/	.	.
=162	=162	=162	=162
0AA	[0A	0r	0r
=163	=163	=163	=163
0FF	0A]	1r	0r
.	.	[1c	.
=164	=164	=164	=164
0F	1r	1c]	0f
.	1c	1A	.
=165	=165	=165	=165
1D	1d	1B-	1f
1E	1B-	[1G	[1e
=166	=166	=166	=166
0C	0c	1G]	1e]
.	.	[1A	1e
=167	=167	=167	=167
0D	1r	1A]	0f
.	1A	1F	.
=168	=168	=168	=168
1BB-	1B-	1G	1d
1C	1G	[1E	[1c
=169	=169	=169	=169
0AA	0A	1E]	1c]
.	.	1c	1r
=170	=170	=170	=170
1BB-	2F/	1d	0r
.	2.G/	.	.
1GG	.	1B-	.
.	4F/	.	.
.	4E/	.	.
.	4D/	.	.
=171	=171	=171	=171
1AA	1C	1c	0r
2FF/	1r	2A/	.
[2GG/	.	[2B-\	.
=172	=172	=172	=172
4GG/]	0r	4B-\]	0r
4FF/	.	4A/	.
4EEni/	.	4G/	.
4DD/	.	4F/	.
1EEni	.	1G	.
=173	=173	=173	=173
0FF	1r	0F	0f
.	2r	.	.
.	[2A/	.	.
=174	=174	=174	=174
0r	2A/]	0r	1f
.	4G/	.	.
.	4F/	.	.
.	2A/	.	[1e
.	[2G/	.	.
=175	=175	=175	=175
0r	4G/]	1r	1e]
.	4F/	.	.
.	4E/	.	.
.	4D/	.	.
.	1C	1c	1e
=176	=176	=176	=176
0r	0r	2A/	0f
.	.	2.d\	.
.	.	4c\	.
.	.	4Bni\	.
.	.	4A/	.
=177	=177	=177	=177
0r	0r	1Bni	1d
.	.	1c	[1c
=178	=178	=178	=178
1.F	1.c	1r	1c]
.	.	[1A	1r
2F\	2c\	.	.
=179	=179	=179	=179
1F	1c	2A/]	0r
.	.	2A/	.
1F	1c	2A/	.
.	.	2A/	.
=180	=180	=180	=180
1F	1c	1A	0r
1r	1r	2r	.
.	.	[2A/	.
=181	=181	=181	=181
1.F	2.c\	2A/]	1r
.	.	4G/	.
.	4B-\	4F/	.
.	2c\	1A	1f
4E\	2d\	.	.
4D\	.	.	.
=182	=182	=182	=182
2E\	2B-\	1G	1g
1C	1c	.	.
.	.	2E/	2g/
[2D\	[2A/	2F/	[2f/
=183	=183	=183	=183
2D\]	2A/]	1D	2f/]
4C/	2B-\	.	2f/
4BB-/	.	.	.
2C/	2G/	1C	2e/
2AA/	[2c\	.	2c/
=184	=184	=184	=184
2C/	2c\]	1r	2e/
2D\	1A	.	2f/
1BB-	.	1D	1d
.	2G/	.	.
=185	=185	=185	=185
[0AAl	[0A;l	0E	[0cl
=186	=186	=186	=186
0AA]	0Al]	0E;l	0c]
!!LO:LB:i:g=z
=187||	=187||	=187||	=187||
*>C	*>C	*>C	*>C
!!section: Et unam
!!!OMD: Et unam
*M3/1	*M3/1	*M3/1	*M3/1
*met(C|3)	*met(C|3)	*met(C|3)	*met(C|3)
0.r	0F	0.r	0.r
.	1F	.	.
=188	=188	=188	=188
0.r	0B-	0.r	0.r
.	1B-	.	.
=189	=189	=189	=189
0.r	1A	0C	1r
.	0G	.	1r
.	.	1C	1g
=190	=190	=190	=190
0.r	0.F	0F	0a
.	.	1F	1a
=191	=191	=191	=191
0.r	0.r	1E	1g
.	.	0D	0f
=192	=192	=192	=192
1r	1c	0.C	0e
1r	1c	.	.
1C	1c	.	1r
=193	=193	=193	=193
0D	0.F	0.r	1f
.	.	.	1f
1D	.	.	1f
=194	=194	=194	=194
0C	0.r	1G	0e
.	.	1G	.
1r	.	1G	1r
=195	=195	=195	=195
0E	0c	0.C	0g
1E	1c	.	1g
=196	=196	=196	=196
1E	1c	0.r	1g
1F	1A	.	1c
1D	1B-	.	1d
=197	=197	=197	=197
0C	0.c	0G	0e
1C	.	1G	1e
=198	=198	=198	=198
1BB-	0.r	1G	1d
1C	.	1E	2c/
.	.	.	2B-/
1D	.	1F	1A
=199	=199	=199	=199
1.GG	0.r	0G	0G
2AA/	.	.	.
1BB-	.	1G	1d
=200	=200	=200	=200
0C	0c	0G	1.e
.	.	.	4f/
.	.	.	4g/
1r	1c	1F	1a
=201	=201	=201	=201
0.r	1c	1E	1g
.	1A	0D	0f
.	1B-	.	.
=202	=202	=202	=202
0.r	0c	0.C	1.e
.	.	.	2f/
.	1c	.	1g
=203	=203	=203	=203
0.r	0c	[0.C	1a
.	.	.	1.g
.	1B-	.	.
.	.	.	2f/
=204	=204	=204	=204
0.r	1A	0.C]	0f
.	0G	.	.
.	.	.	1e
=205	=205	=205	=205
0F	1F	0c	0.f
.	0D	.	.
1F	.	1d	.
=206	=206	=206	=206
1.E	1C	1.e	0.r
.	0G	.	.
2D\	.	2B-\	.
1E	.	1c	.
=207	=207	=207	=207
1F	1A	1.d	0f
0D	1.F	.	.
.	.	2A/	.
.	.	1B-	1f
.	2E/	.	.
=208	=208	=208	=208
0C	1G	0c	1.e
.	1r	.	.
.	.	.	2d/
1r	1c	1r	1e
=209	=209	=209	=209
0BB-	0d	0F	1f
.	.	.	0d
1BB-	1B-	1G	.
=210	=210	=210	=210
1.AA	0c	1.A	0c
2GG/	.	2E/	.
1AA	1C	1F	1r
=211	=211	=211	=211
1BB-	1D	1.G	0B-
0GG	0BB-	.	.
.	.	2D/	.
.	.	1E	1B-
=212	=212	=212	=212
0.FF	0.C	0.F	1.A
.	.	.	2G/
.	.	.	1A
=213	=213	=213	=213
0.r	0.r	1G	1B-
.	.	0B-	0G
=214	=214	=214	=214
0F	0c	0A	0.F
1F	1d	1D	.
=215	=215	=215	=215
1.E	1.e	1C	0.r
.	.	0G	.
2D\	2B-\	.	.
1E	1c	.	.
=216	=216	=216	=216
1F	1.d	1A	0f
0D	.	1.F	.
.	2A/	.	.
.	1B-	.	1f
.	.	2E/	.
=217	=217	=217	=217
0C	0c	1G	1.e
.	.	1r	.
.	.	.	2d/
1r	1r	1c	1e
=218	=218	=218	=218
0BB-	0F	0d	1f
.	.	.	0d
1BB-	1G	1B-	.
=219	=219	=219	=219
1.AA	1.A	0c	0c
2GG/	2E/	.	.
1AA	1F	1C	1r
=220	=220	=220	=220
1BB-	1.G	1D	0B-
0GG	.	0BB-	.
.	2D/	.	.
.	1E	.	1B-
=221	=221	=221	=221
0.FF	0.F	1C	1.A
.	.	1r	.
.	.	.	2G/
.	.	1c	1A
=222	=222	=222	=222
0.r	0.r	0d	1B-
.	.	.	0G
.	.	1B-	.
=223	=223	=223	=223
1r	1r	1c	0.F
1r	1r	0A	.
1F	1c	.	.
=224	=224	=224	=224
0G	1B-	0.G	0.r
.	1.e-	.	.
1E	.	.	.
.	2d\	.	.
=225	=225	=225	=225
1F	0c	0.r	1r
0D	.	.	1r
.	1Bni	.	1f
=226	=226	=226	=226
0.C	0.c	1r	0g
.	.	1r	.
.	.	1c	1e
=227	=227	=227	=227
0.r	0.r	0d	1f
.	.	.	0d
.	.	1B-	.
=228	=228	=228	=228
1r	1r	1c	0.c
1r	1r	0A	.
1F	1c	.	.
=229	=229	=229	=229
0G	1B-	0.G	0.r
.	1.e-i	.	.
1E	.	.	.
.	2d\	.	.
=230	=230	=230	=230
1F	0c	0.r	1r
0D	.	.	1r
.	1Bni	.	1f
=231	=231	=231	=231
0.C	0.c	1r	0g
.	.	1r	.
.	.	1c	1e
=232	=232	=232	=232
1r	1r	1.d	1f
1r	1r	.	0d
.	.	2c\	.
1BB-	1F	2B-\	.
.	.	2A/	.
=233	=233	=233	=233
0C	1E	1G	0c
.	1.A	0C	.
1AA	.	.	1c
.	2G/	.	.
=234	=234	=234	=234
1BB-	0F	1D	1f
0GG	.	1.BB-	1g
.	1E	.	1b-
.	.	2AA/	.
=235	=235	=235	=235
*M2/1	*M2/1	*M2/1	*M2/1
*met(Cr)	*met(C|)	*met(Cr)	*met(C|)
*rscale:2	*	*rscale:2	*
0FF	[0F	1C	0a
.	.	2r	.
.	.	2C/	.
=236	=236	=236	=236
1r	0F]	1D	1.f
1FF	.	1C	.
.	.	.	4e/
.	.	.	4d/
=237	=237	=237	=237
2FF/	1r	0F	2c/
1BB-	.	.	2d/
.	1F	.	2B-/
2BB-/	.	.	2d/
=238	=238	=238	=238
2AA/	2F/	0r	2c/
2GG/	1B-	.	2d/
2.BB-/	.	.	2B-/
.	2B-\	.	2d/
4AA/	.	.	.
=239	=239	=239	=239
2FF/	2A/	1C	1c
2C/	1G	.	.
2C/	.	2C/	2r
[2FF/	2F/	[2F/	[2a/
=240	=240	=240	=240
4FF/]	2r	2F/]	2a/]
4GG/	.	.	.
4AA/	2c\	2F/	2g/
4BB-/	.	.	.
2C/	2c\	2E/	2g/
2D\	2F/	[2D/	[2f/
=241	=241	=241	=241
2BB-/	2r	2D/]	2f/]
2C/	1c	2C/	2e/
1GG	.	2G/	1d
.	2B-\	2G/	.
=242	=242	=242	=242
1AA	2c\	1C	1c
.	2A/	.	.
2r	2r	2r	1d
[2GG/	[2B-\	[2G/	.
=243	=243	=243	=243
2GG/]	2B-\]	2G/]	2r
2AA/	2A/	2F/	2c/
2GG/	2B-\	2G/	2d/
[2C/	2G/	2E/	2e/
=244	=244	=244	=244
4C/]	2r	2r	2c/
4AA/	.	.	.
1AA	1c	1A	2r
.	.	.	2c/
2BB-/	2B-\	2G/	2d/
=245	=245	=245	=245
2AA/	2c\	2A/	2e/
2.D\	2A/	2F/	1f
.	2r	2r	.
4BB-/	.	.	.
2BB-/	[2B-\	[2F/	2d/
=246	=246	=246	=246
1C	2B-\]	2F/]	1e
.	2A/	2E/	.
2BB-/	2B-\	2F/	2d/
[2C/	2G/	2E/	[2e/
=247	=247	=247	=247
2C/]	2r	2r	2e/]
2AA/	1A	1E	2c/
1BB-	.	.	1d
.	2G/	2D/	.
=248	=248	=248	=248
2AA/	2A/	1E	1c
2.C/	2G/	.	.
.	2A/	2r	1r
4AA/	.	.	.
2BB-/	2G/	2D/	.
=249	=249	=249	=249
2C/	2A/	2E/	0r
2D\	2F/	2F/	.
2BB-/	1G	2D/	.
2C/	.	2E/	.
=250	=250	=250	=250
1AA	2r	2r	1c
.	1A	1E	.
1BB-	.	.	1d
.	2G/	2D/	.
=251	=251	=251	=251
2AA/	2A/	1E	2.c/
2.C/	2G/	.	.
.	.	.	4B-/
.	2A/	2r	2c/
4AA/	.	.	.
2BB-/	2G/	2D/	2d/
=252	=252	=252	=252
2C/	2A/	2E/	2c/
2D\	2F/	2F/	1f
2BB-/	1G	2D/	.
2C/	.	2E/	2e/
=253	=253	=253	=253
2AA/	[0Fl	2C/	[0fl
2BB-/	.	2D/	.
2AA/	.	2C/	.
[2BB-/	.	[2D/	.
=254	=254	=254	=254
2BB-/]	0F_	4D/]	0f_
.	.	4BB-/	.
2AA/	.	2C/	.
2.BB-/	.	1D	.
4AA/	.	.	.
=255	=255	=255	=255
0FFl	0F]	0Cl	0f]
==	==	==	==
*rscale:1	*	*rscale:1	*
*-	*-	*-	*-
!!!RDF**kern: l=long note in original notation
!!!RDF**kern: i=editorial accidental
!!!RDF**kern: V=start of tuplet marker
!!!RDF**kern: Z=end of tuplet marker
!!!ENC: Jesse Rodin; Victoria Chang 2011/09/04/
!!!END: 2011/09/04/
!!!SMS: Petrucci 1502
!!!EED: Jesse Rodin
!!!EEV: 2011/10/03/
!!attribution-level@Jos: 1 (secure)
!!!ONB: Translated from MusicXML and edited on 2011/10/03/ by Craig Sapp
!!muse2ps: T^@{OPR}^u^@{ONM}{. }@{OTL}^C^@{COM}\n@{SCT}^i2I100v85,90,85,150c92Q16
